svg/toolbarDraft.svg

<svg width="284" height="284" viewBox="0 0 284 284" fill="none" xmlns="http://www.w3.org/2000/svg">
<path fill-rule="evenodd" clip-rule="evenodd" d="M153.661 201.642C153.239 201.642 152.814 201.605 152.391 201.531L41.0508 181.777C37.0958 181.076 34.4598 177.301 35.1608 173.347C35.8638 169.393 39.6338 166.761 43.5918 167.457L151.552 186.611L236.987 113.694C240.044 111.088 244.632 111.45 247.239 114.505C249.846 117.56 249.484 122.149 246.429 124.757L158.382 199.901C157.055 201.034 155.377 201.642 153.661 201.642Z" fill="#1A1919"/>
<path fill-rule="evenodd" clip-rule="evenodd" d="M149.095 127.565C148.753 127.565 148.405 127.535 148.056 127.475L96.352 118.54C93.054 117.97 90.842 114.835 91.413 111.537C91.982 108.24 95.114 106.026 98.416 106.598L150.12 115.533C153.417 116.103 155.629 119.238 155.059 122.536C154.55 125.484 151.989 127.565 149.095 127.565Z" fill="#1A1919"/>
<path fill-rule="evenodd" clip-rule="evenodd" d="M224.539 93.6642L210.018 57.9022C209.084 55.6042 207.044 53.9402 204.605 53.4872L176.046 48.1992C170.516 51.9372 164.655 55.4292 159.607 59.9462L195.866 66.6602L185.39 77.8402C183.844 79.4902 183.239 81.8122 183.785 84.0062C184.332 86.2012 185.952 87.9692 188.092 88.7032L207.775 95.4552L151.481 144.115L58.8404 127.678L142.887 56.8502L159.607 59.9462C164.655 55.4292 170.516 51.9372 176.046 48.1992L142.154 41.9232C140.015 41.5302 137.809 42.1102 136.144 43.5132L37.5934 126.565C35.4364 128.384 34.5254 131.286 35.2564 134.012C35.9884 136.737 38.2314 138.792 41.0094 139.286L152.349 159.039C152.771 159.114 153.196 159.15 153.619 159.15C155.352 159.15 157.043 158.532 158.374 157.38L222.557 101.901C224.913 99.8632 225.711 96.5512 224.539 93.6642Z" fill="#1A1919"/>
<path fill-rule="evenodd" clip-rule="evenodd" d="M168.924 111.284C168.581 111.284 168.234 111.254 167.885 111.194L116.181 102.259C112.883 101.689 110.672 98.5541 111.242 95.2561C111.812 91.9591 114.946 89.7431 118.245 90.3171L169.949 99.2521C173.246 99.8221 175.458 102.957 174.888 106.255C174.379 109.203 171.818 111.284 168.924 111.284Z" fill="#1A1919"/>
<path fill-rule="evenodd" clip-rule="evenodd" d="M159.111 89.4608C158.768 89.4608 158.421 89.4308 158.072 89.3708L136.223 85.5958C132.926 85.0258 130.714 81.8898 131.284 78.5928C131.854 75.2948 134.985 73.0798 138.287 73.6538L160.136 77.4288C163.433 77.9988 165.645 81.1338 165.075 84.4318C164.566 87.3798 162.005 89.4608 159.111 89.4608Z" fill="#1A1919"/>
<path fill-rule="evenodd" clip-rule="evenodd" d="M153.661 242.149C153.239 242.149 152.814 242.112 152.391 242.038L41.0508 222.283C37.0958 221.581 34.4598 217.807 35.1608 213.853C35.8638 209.899 39.6338 207.264 43.5918 207.962L151.552 227.118L236.987 154.201C240.044 151.594 244.632 151.958 247.239 155.011C249.846 158.065 249.484 162.656 246.429 165.262L158.382 240.408C157.055 241.541 155.378 242.149 153.661 242.149Z" fill="#1A1919"/>
</svg>

<svg width="284" height="284" viewBox="0 0 284 284" xmlns="http://www.w3.org/2000/svg">
    <g fill="#1A1918" fill-rule="evenodd">
        <path d="M153.66 201.642c-.421 0-.846-.037-1.27-.111L41.05 181.777a7.272 7.272 0 1 1 2.542-14.32l107.96 19.154 85.435-72.917a7.273 7.273 0 0 1 9.442 11.063L158.382 199.9a7.271 7.271 0 0 1-4.721 1.74M149.095 127.565c-.342 0-.69-.03-1.04-.09l-51.703-8.935a6.058 6.058 0 0 1-4.94-7.003 6.056 6.056 0 0 1 7.004-4.94l51.704 8.936a6.06 6.06 0 0 1-1.025 12.032"/>
        <path d="M224.54 93.664l-14.521-35.762a7.277 7.277 0 0 0-5.413-4.415l-28.56-5.288c-5.53 3.738-11.39 7.23-16.438 11.747l36.259 6.714-10.476 11.18a6.665 6.665 0 0 0 2.702 10.863l19.683 6.752-56.294 48.66-92.641-16.437 84.047-70.828 16.72 3.096c5.048-4.517 10.909-8.009 16.439-11.747l-33.892-6.276a7.284 7.284 0 0 0-6.01 1.59l-98.551 83.052a7.276 7.276 0 0 0-2.337 7.447 7.275 7.275 0 0 0 5.753 5.274l111.34 19.753a7.263 7.263 0 0 0 6.025-1.659l64.183-55.479a7.274 7.274 0 0 0 1.982-8.237"/>
        <path d="M168.924 111.284c-.343 0-.69-.03-1.04-.09l-51.703-8.935a6.06 6.06 0 0 1-4.94-7.003 6.056 6.056 0 0 1 7.004-4.939l51.704 8.935a6.06 6.06 0 0 1-1.025 12.032M159.11 89.46c-.342 0-.69-.03-1.038-.09l-21.85-3.774a6.06 6.06 0 0 1 2.065-11.942l21.849 3.775a6.06 6.06 0 0 1-1.025 12.032M153.66 242.15c-.421 0-.846-.038-1.27-.112L41.05 222.283a7.272 7.272 0 1 1 2.542-14.32l107.96 19.155 85.435-72.917a7.27 7.27 0 1 1 9.442 11.061l-88.047 75.146a7.27 7.27 0 0 1-4.721 1.741"/>
    </g>
</svg>
